X:1
T:The Old Favourite
L:1/8
Q:1/4=160
M:6/8
K:G
[K:G]"G""^The Old Favourite" B3 BAB |"Em" d BA G2 B |"C" ded d2 B |"D" ded B2 A |
"G" B3 BAB |"Em" dBA G2 B |"C" ded"D" cBA |"G" G3 GBd ::
"G" g3 f3 |"Em" efe d2 B |"C" ded d2 B |"D" ded Bdf |
"G" g3 f3 |"Em" efe d2 B |1"C" dge"D" dBA |"G" G3 GBd :|2"C" dge dge |"D" dge dBA |]:
